X: 021812
T: Bolton Street
T: Sr\'aid Bolton
S: B.Breathnach:"Ceol Rince na hEireann" IV/201 
Z: B.Black
L: 1/8
M: 4/4
R: reel
K: D
B2 BA FAAF|EBBA Beef|dBAF DEFA|BdAF FE E2 :|
Eeef defd|BABc defe|dBAF DEFA|BdAF FE E2|
Eeef defd|BABc defe|dBAF DEFA|1 BdAF Edcd :|2\
BdAF FE E2 ||
